X:1
T:Change Me Deeply
T:Change Me Deeply
T:Unknown, 17th Century
T:Stephen Popovich, 2013
T:Public Domain Courtesy of the Cyber Hymnal™
C:Unknown, 17th Century
Z:Public Domain
Z:Courtesy of the Cyber Hymnal™
%%score 1 2
L:1/8
Q:1/4=90
M:3/4
K:C
V:1 treble 
V:2 treble 
V:1
 z C EF G z | z F ED C z | z D EG c2 | c4 BG- | G2 B2 cA | F2 GA GE | C3 D EG | A3 G E C2 |] %8
w: 1.~When once I begged|Thee “save my soul,”|Thy me- rcy fast ~|did meet ~ me;|* My scar- let|sins ~ turn- ed white as|snow As Thou did|change ~ me deep- ly.|
w: 2.~Yet bends my heart|to emp- ty fare|Where fruit- less lands|re- ceive me,|* And stays the|joy Th- y yoke would|share ’Till Lord Thou|change me deep- ly.|
w: 3.~If fur- nace fire|that burns the dross|Will make me fit|to please Thee,|* Then help me|now pi- ck up my|cross That Thou might|change me deep- ly.|
w: 4.~For when sal- va-|tion full- ness comes|In clouds where I|shall see Thee,|* What joy to|hear Th- y word “well|done,” If now Thou|change me deep- ly.|
w: 5.~And then at last|will come the hour|To con- sum- mate|com- plete- ly|* Thy won- der|of ~ re- sur- rec- tion|pow’r As Thou shall|change me deep- ly.|
V:2
 z E AG CE | GE cG CE | GE [Ac-][Gc] (A,E) | (AE) cE B,D | GD BG F,A, | FC AF CE | GE cG G,D | %7
 GD BD C E2 |] %8

